public/img/clients/ontario.svg

<svg width="200" height="100" viewBox="0 0 200 100" fill="none" xmlns="http://www.w3.org/2000/svg">
<path d="M34.5 42C27.7 42 23.8 46 23.8 52.4C23.8 58.8 27.7 62.8 34.5 62.8C41.3 62.8 45.2 58.8 45.2 52.4C45.2 46.1 41.3 42 34.5 42ZM34.5 58.8C30.7 58.8 28.4 56.3 28.4 52.4C28.4 48.5 30.6 46 34.5 46C38.3 46 40.6 48.5 40.6 52.4C40.6 56.4 38.3 58.8 34.5 58.8Z" fill="black"/>
<path d="M58 62.5V53.6C58 51.5 57 50.5 55.3 50.5C53.6 50.5 52.6 51.6 52.6 53.6V62.5H48.2V47.1H52.6V49.3C53.6 48 54.9 46.8 57.1 46.8C60.4 46.8 62.3 49 62.3 52.5V62.5H58Z" fill="black"/>
<path d="M70.8 57.4C70.8 58.4 71.3 58.9 72.3 58.9C73.2 58.9 73.9 58.7 74.6 58.4V61.9C73.7 62.4 72.6 62.7999 71.1 62.7999C68.4 62.7999 66.6 61.7 66.6 58.2V50.7H64.8V47.0999H66.6V43.2H70.8V47.0999H74.6V50.7H70.8V57.4Z" fill="black"/>
<path d="M83.9 46.9C81.3 46.9 79.6 47.4 77.9 48.1L78.9 51.2C80.3 50.7 81.7 50.3 83.3 50.3C85.5 50.3 86.7 51.3 86.7 53.2V53.4C85.6 53.1 84.3 52.9 82.8 52.9C79.1 52.9 76.5 54.5 76.5 58V58.1C76.5 61.2 78.9 62.7 81.8 62.7C83.9 62.7 85.5 61.9 86.6 60.9V62.5H90.7V53.5C90.8 49.4 88.7 46.9 83.9 46.9ZM86.7 57C86.7 58.6 85.3 59.7 83.2 59.7C81.8 59.7 80.8 59 80.8 57.8V57.7C80.8 56.3 82 55.6 83.9 55.6C85 55.6 86 55.8 86.7 56.1V57Z" fill="black"/>
<path d="M103.2 50.8C100.3 50.8 98.6 52.5 98.6 56.2V62.6H94.3V47.1H98.6V50.2C99.5 48.1 100.9 46.7 103.4 46.8V50.7H103.2V50.8Z" fill="black"/>
<path d="M110.5 41.5V45.4H105.9V41.5H110.5ZM110.3 47.2L106 47.1V62.5H110.4L110.3 47.2Z" fill="black"/>
<path d="M121.7 46.8C116.5 46.8 113.3 49.9001 113.3 54.9001C113.3 59.8001 116.4 62.9001 121.6 62.9001C126.9 62.9001 130 59.8001 130 54.9001C130 49.9001 126.9 46.8 121.7 46.8ZM121.7 59.2001C119.1 59.2001 117.7 57.5001 117.7 54.9001C117.7 52.3001 119.1 50.6 121.7 50.6C124.3 50.6 125.8 52.3001 125.8 54.9001C125.7 57.5001 124.3 59.2001 121.7 59.2001Z" fill="black"/>
<path d="M159.1 43.9999C159.4 44.2999 159.5 44.5999 159.7 45.0999C159.8 45.4999 159.8 45.8999 159.7 46.2999C159.5 47.1999 158.6 47.8999 157.4 48.2999C157.8 46.9999 157.1 45.7999 156.2 44.9999C154.4 43.4999 152.1 42.5999 149.6 42.5999C148.7 42.5999 147.9 42.6999 147 42.8999C147.7 45.3999 149.3 47.5999 151.8 49.0999C151.9 48.6999 152.1 48.3999 152.4 48.0999C152.6 47.7999 153 47.5999 153.4 47.4999C154.3 47.1999 155.3 47.6999 156.3 48.4999C154.9 48.7999 154.3 49.9999 154.1 51.1999C153.7 53.4999 154 55.8999 155.3 58.0999C155.7 58.8999 156.3 59.4999 156.9 60.1999C158.7 58.2999 159.8 55.7999 159.8 52.8999C159.4 52.9999 159.1 52.9999 158.6 52.8999C158.2 52.7999 157.8 52.5999 157.5 52.2999C156.8 51.6999 156.7 50.4999 156.9 49.2999C157.9 50.2999 159.2 50.2999 160.4 49.8999C162.6 49.0999 164.5 47.5999 165.8 45.3999C166.2 44.5999 166.6 43.7999 166.8 42.9999C164.3 42.1999 161.6 42.4999 159.1 43.9999Z" fill="black"/>
<path d="M156.9 30.7C143.8 30.7 137.6 36.9 137.6 50C137.6 63.1 143.8 69.3 156.9 69.3C170 69.3 176.2 63.1 176.2 50C176.2 36.9 170.1 30.7 156.9 30.7ZM168.2 46.5999C167 48.5999 165.2 50.5999 162.6 51.7999C163 57 160.4 61.2 157 63.5C155.4 62.4 154.1 61 153.1 59.2999C151.9 57.2999 151.2 54.6999 151.4 51.7999C146.7 49.5999 144.4 45.1999 144.1 41.0999C145.8 40.2999 147.7 39.7999 149.7 39.7999C152 39.7999 154.6 40.3999 157 42.0999C161.3 39.1999 166.2 39.2999 169.9 41.0999C169.7 42.9999 169.2 44.8999 168.2 46.5999Z" fill="black"/>
</svg>

<svg xmlns="http://www.w3.org/2000/svg" focusable="false" role="img" viewBox="0 0 200 100" fill="currentColor">
  <path d="M34.5 42c-6.8 0-10.7 4-10.7 10.4s3.9 10.4 10.7 10.4c6.8 0 10.7-4 10.7-10.4 0-6.3-3.9-10.4-10.7-10.4zm0 16.8c-3.8 0-6.1-2.5-6.1-6.4 0-3.9 2.2-6.4 6.1-6.4 3.8 0 6.1 2.5 6.1 6.4 0 4-2.3 6.4-6.1 6.4zM58 62.5v-8.9c0-2.1-1-3.1-2.7-3.1-1.7 0-2.7 1.1-2.7 3.1v8.9h-4.4V47.1h4.4v2.2c1-1.3 2.3-2.5 4.5-2.5 3.3 0 5.2 2.2 5.2 5.7v10H58zM70.8 57.4c0 1 .5 1.5 1.5 1.5.9 0 1.6-.2 2.3-.5v3.5c-.9.5-2 .9-3.5.9-2.7 0-4.5-1.1-4.5-4.6v-7.5h-1.8v-3.6h1.8v-3.9h4.2v3.9h3.8v3.6h-3.8v6.7zM83.9 46.9c-2.6 0-4.3.5-6 1.2l1 3.1c1.4-.5 2.8-.9 4.4-.9 2.2 0 3.4 1 3.4 2.9v.2c-1.1-.3-2.4-.5-3.9-.5-3.7 0-6.3 1.6-6.3 5.1v.1c0 3.1 2.4 4.6 5.3 4.6 2.1 0 3.7-.8 4.8-1.8v1.6h4.1v-9c.1-4.1-2-6.6-6.8-6.6zM86.7 57c0 1.6-1.4 2.7-3.5 2.7-1.4 0-2.4-.7-2.4-1.9v-.1c0-1.4 1.2-2.1 3.1-2.1 1.1 0 2.1.2 2.8.5v.9zM103.2 50.8c-2.9 0-4.6 1.7-4.6 5.4v6.4h-4.3V47.1h4.3v3.1c.9-2.1 2.3-3.5 4.8-3.4v3.9h-.2v.1zM110.5 41.5v3.9h-4.6v-3.9h4.6zm-.2 5.7l-4.3-.1v15.4h4.4l-.1-15.3zM121.7 46.8c-5.2 0-8.4 3.1-8.4 8.1 0 4.9 3.1 8 8.3 8 5.3 0 8.4-3.1 8.4-8 0-5-3.1-8.1-8.3-8.1zm0 12.4c-2.6 0-4-1.7-4-4.3 0-2.6 1.4-4.3 4-4.3s4.1 1.7 4.1 4.3c-.1 2.6-1.5 4.3-4.1 4.3zM159.1 44c.3.3.4.6.6 1.1.1.4.1.8 0 1.2-.2.9-1.1 1.6-2.3 2 .4-1.3-.3-2.5-1.2-3.3-1.8-1.5-4.1-2.4-6.6-2.4-.9 0-1.7.1-2.6.3.7 2.5 2.3 4.7 4.8 6.2.1-.4.3-.7.6-1 .2-.3.6-.5 1-.6.9-.3 1.9.2 2.9 1-1.4.3-2 1.5-2.2 2.7-.4 2.3-.1 4.7 1.2 6.9.4.8 1 1.4 1.6 2.1 1.8-1.9 2.9-4.4 2.9-7.3-.4.1-.7.1-1.2 0-.4-.1-.8-.3-1.1-.6-.7-.6-.8-1.8-.6-3 1 1 2.3 1 3.5.6 2.2-.8 4.1-2.3 5.4-4.5.4-.8.8-1.6 1-2.4-2.5-.8-5.2-.5-7.7 1z"/>
  <path d="M156.9 30.7c-13.1 0-19.3 6.2-19.3 19.3 0 13.1 6.2 19.3 19.3 19.3 13.1 0 19.3-6.2 19.3-19.3 0-13.1-6.1-19.3-19.3-19.3zm11.3 15.9c-1.2 2-3 4-5.6 5.2.4 5.2-2.2 9.4-5.6 11.7-1.6-1.1-2.9-2.5-3.9-4.2-1.2-2-1.9-4.6-1.7-7.5-4.7-2.2-7-6.6-7.3-10.7 1.7-.8 3.6-1.3 5.6-1.3 2.3 0 4.9.6 7.3 2.3 4.3-2.9 9.2-2.8 12.9-1-.2 1.9-.7 3.8-1.7 5.5z"/>
</svg>
